packages/core/src/svgs/block.svg

<svg width="24" height="24" viewBox="0 0 24 24" fill="none" xmlns="http://www.w3.org/2000/svg">
<g clip-path="url(#clip0_31_7147)">
<path d="M0 0H24V24H0V0Z" fill="#2D338A"/>
<path d="M8.5445 6H15.6429L19.2858 12L15.6429 18H8.48193L12.0626 12L8.5445 6ZM12.3121 8.14286L14.6366 12L12.3121 15.8571H14.3941L16.7045 12L14.3799 8.14286H12.3056H12.3121Z" fill="white"/>
<path opacity="0.5" d="M9.30093 8.68685L7.28878 12.0001L9.28678 15.2869L8.01007 17.4203L4.71436 12.0001L8.03793 6.52686L9.30093 8.68685Z" fill="white"/>
</g>
<defs>
<clipPath id="clip0_31_7147">
<rect width="24" height="24" fill="white"/>
</clipPath>
</defs>
</svg>

<svg xmlns="http://www.w3.org/2000/svg" width="24" height="24" fill="none" viewBox="0 0 24 24"><g clip-path="url(#a)"><path fill="#2D338A" d="M0 0h24v24H0z"/><path fill="#fff" d="M8.545 6h7.098l3.643 6-3.643 6H8.482l3.58-6zm3.767 2.143L14.637 12l-2.325 3.857h2.082L16.704 12 14.38 8.143h-2.074z"/><path fill="#fff" d="M9.3 8.687 7.29 12l1.998 3.287L8.01 17.42 4.714 12l3.324-5.473z" opacity=".5"/></g><defs><clipPath id="a"><path fill="#fff" d="M0 0h24v24H0z"/></clipPath></defs></svg>
